images/filter.svg

<svg enable-background="new 0 0 512 512" height="512" viewBox="0 0 512 512" width="512" xmlns="http://www.w3.org/2000/svg"><g fill="#03a0e4"><path d="m499.157 30.771-60.92 147.316-55.234 133.565-46.028 111.304-31.136 75.293c-3.441 8.324-11.557 13.751-20.559 13.751h-58.558c-9.003 0-17.119-5.427-20.56-13.751l-31.137-75.293-46.028-111.304-55.233-133.565-60.921-147.316c-6.06-14.655 4.707-30.771 20.561-30.771h445.192c15.853 0 26.621 16.116 20.561 30.771z"/><path d="m275.469 467.478c0 4.611-3.735 8.348-8.344 8.348h-22.251c-4.609 0-8.344-3.736-8.344-8.348s3.735-8.348 8.344-8.348h22.251c4.609 0 8.344 3.737 8.344 8.348z"/><path d="m499.157 30.771-60.92 147.316-55.234 133.565-46.028 111.304h-161.951l-46.028-111.304-55.232-133.565-60.921-147.316c-6.06-14.655 4.707-30.771 20.561-30.771h445.192c15.853 0 26.621 16.116 20.561 30.771z"/><path d="m292.157 367.304c0 4.611-3.735 8.348-8.344 8.348h-55.627c-4.609 0-8.344-3.736-8.344-8.348 0-4.611 3.735-8.348 8.344-8.348h55.627c4.609.001 8.344 3.737 8.344 8.348z"/><path d="m499.157 30.771-60.92 147.316-55.234 133.565h-254.007l-55.232-133.565-60.921-147.316c-6.06-14.655 4.707-30.771 20.561-30.771h445.192c15.853 0 26.621 16.116 20.561 30.771z"/><path d="m319.97 228.174c0 4.611-3.735 8.348-8.345 8.348h-111.253c-4.609 0-8.344-3.736-8.344-8.348s3.735-8.348 8.344-8.348h111.253c4.61 0 8.345 3.737 8.345 8.348zm-30.594 25.043h-66.751c-4.609 0-8.344 3.736-8.344 8.348 0 4.611 3.735 8.348 8.344 8.348h66.751c4.609 0 8.345-3.736 8.345-8.348-.001-4.611-3.736-8.348-8.345-8.348z"/><path d="m33.404 0h445.192c15.853 0 26.621 16.116 20.56 30.771l-60.919 147.316h-364.473l-60.921-147.316c-6.06-14.655 4.707-30.771 20.561-30.771z"/><path d="m331.096 72.348c0 4.611-3.735 8.348-8.345 8.348h-133.502c-4.609 0-8.344-3.736-8.344-8.348s3.734-8.348 8.344-8.348h133.503c4.609 0 8.344 3.736 8.344 8.348zm-30.595 25.043h-89.002c-4.609 0-8.344 3.736-8.344 8.348s3.735 8.348 8.344 8.348h89.002c4.609 0 8.344-3.736 8.344-8.348s-3.735-8.348-8.344-8.348z"/></g></svg>

<?xml version="1.0"?>
<svg xmlns="http://www.w3.org/2000/svg" xmlns:xlink="http://www.w3.org/1999/xlink" version="1.1" id="Layer_1" x="0px" y="0px" viewBox="0 0 512 512" style="enable-background:new 0 0 512 512;" xml:space="preserve" width="512px" height="512px" class=""><g><path style="fill:#03A0E4" d="M499.157,30.771l-60.92,147.316l-55.234,133.565l-46.028,111.304l-31.136,75.293  C302.398,506.573,294.282,512,285.28,512h-58.558c-9.003,0-17.119-5.427-20.56-13.751l-31.137-75.293l-46.028-111.304  L73.764,178.087L12.843,30.771C6.783,16.116,17.55,0,33.404,0h445.192C494.449,0,505.217,16.116,499.157,30.771z" data-original="#FFBC00" class="" data-old_color="#FFBC00"/><path style="fill:#03A0E4" d="M275.469,467.478c0,4.611-3.735,8.348-8.344,8.348h-22.251c-4.609,0-8.344-3.736-8.344-8.348  s3.735-8.348,8.344-8.348h22.251C271.734,459.13,275.469,462.867,275.469,467.478z" data-original="#E0A000" class="" data-old_color="#E0A000"/><path style="fill:#03A0E4" d="M499.157,30.771l-60.92,147.316l-55.234,133.565l-46.028,111.304H175.024l-46.028-111.304  L73.764,178.087L12.843,30.771C6.783,16.116,17.55,0,33.404,0h445.192C494.449,0,505.217,16.116,499.157,30.771z" data-original="#92B703" class="" data-old_color="#92B703"/><path style="fill:#03A0E4" d="M292.157,367.304c0,4.611-3.735,8.348-8.344,8.348h-55.627c-4.609,0-8.344-3.736-8.344-8.348  c0-4.611,3.735-8.348,8.344-8.348h55.627C288.422,358.957,292.157,362.693,292.157,367.304z" data-original="#768900" class="" data-old_color="#768900"/><path style="fill:#03A0E4" d="M499.157,30.771l-60.92,147.316l-55.234,133.565H128.996L73.764,178.087L12.843,30.771  C6.783,16.116,17.55,0,33.404,0h445.192C494.449,0,505.217,16.116,499.157,30.771z" data-original="#FF6029" class="" data-old_color="#00C6FF"/><path style="fill:#03A0E4" d="M319.97,228.174c0,4.611-3.735,8.348-8.345,8.348H200.372c-4.609,0-8.344-3.736-8.344-8.348  s3.735-8.348,8.344-8.348h111.253C316.235,219.826,319.97,223.563,319.97,228.174z M289.376,253.217h-66.751  c-4.609,0-8.344,3.736-8.344,8.348c0,4.611,3.735,8.348,8.344,8.348h66.751c4.609,0,8.345-3.736,8.345-8.348  C297.72,256.954,293.985,253.217,289.376,253.217z" data-original="#B7441C" class="" data-old_color="#B7441C"/><path style="fill:#03A0E4" d="M33.404,0h445.192c15.853,0,26.621,16.116,20.56,30.771l-60.919,147.316H73.764L12.843,30.771  C6.783,16.116,17.55,0,33.404,0z" data-original="#73A4BC" class="" data-old_color="#039FE2"/><path style="fill:#03A0E4" d="M331.096,72.348c0,4.611-3.735,8.348-8.345,8.348H189.249c-4.609,0-8.344-3.736-8.344-8.348  S184.639,64,189.249,64h133.503C327.361,64,331.096,67.736,331.096,72.348z M300.501,97.391h-89.002  c-4.609,0-8.344,3.736-8.344,8.348s3.735,8.348,8.344,8.348h89.002c4.609,0,8.344-3.736,8.344-8.348S305.11,97.391,300.501,97.391z" data-original="#56889B" class="active-path" data-old_color="#FFF9F9"/></g> </svg>
